X:1
T:Ryan's Schottische
%T:Rustic Dance
Z:"Ritter, Thomas J." <thomas_j_ritter@md.northgrum.COM>
L:1/16
M:12/16
K:G
B,C^C | "G"D2B G2E D2^C D2^D | "C"E2c A2c "Am"E2E A_AG | "D7"F2c E2c D2D DEF |
|1 "G"GBA GFE "D7"D2D :|2 "G"G2z D2z G3 |: d^cd | "G"e2d B2G D2G F2G |
"C"A2G F2G "Am"E2E A2G | "D7"F2c E2c D2D DEF |1 "G"GBA GFE "D7"D2z :|2 "G"G2z D2z G3 |]
